X:1
T:With sick and famish'd eyes
T:Henry Purcell
T:With sick and famish'd eyes
C:Henry Purcell
Z:George Herbert
%%score 1 { ( 2 4 ) | ( 3 5 ) }
L:1/8
Q:1/4=50
M:4/4
K:Bb
V:1 treble nm="Soprano" snm="S"
V:2 treble nm="Organ" snm="Org."
V:4 treble 
V:3 bass 
V:5 bass 
V:1
 z G (B4 =E)E | !courtesy!_E3 D D4 | z A A3 GA<^F | G>A B3 B (B/A)B/ | A4 z AAA | d4- d>d c>d | %6
w: With sick _ and|fam- ish'd eyes,|With doub- * * *|* ling knees and wea- * ry|bones, To thee my|cries, _ To thee my|
 (d2 e2) z =eee | (=e f3) z ^fff | g4 z2 (BA) | ^F4 z4 | z d d2 z f B>F | (G _A3) z G F>G | %12
w: groans, _ To thee my|sighs, _ my tears as-|cend: No _|end?|My throat, my soul is|hoarse; _ My heart is|
 E<C G>c (c F2) (e/d/) | B3 A B4 | z d d2- d/ =e/f/<e/ d>e | ^c>c (d/=e)f/ e<A z2 | %16
w: wi- ther'd like a ground _ Which _|thou dost curse;|My thoughts _ turn _ _ _ _|round And make _ me gid- dy;|
 f2 z2 g3/2 (f/ =e>)d | ^c>=B A>G F/=E/D z c | d4 z4 | d/=BB/ B3 c/B/ c>d | =B2 z2 fB/B/ B2 | %21
w: Lord, Lord, I _ fall|_ _ _ _ _ _ _ Yet|call.|Bow- els of pi- * * * ty|hear! Lord of my soul,|
 z2 e3 (d c>)B | A2 (d3 G) E>D | D2 z2 FF/F/ B2- | B/ c/B/>A/ G/>A/B/<G/ c/>d/c/>d/ e/<d/c/=B/ | %25
w: love of _ my|mind, Bow _ down thine|ear! Let not thy wind|_ Scat- * * * * * * * * * * * * ter my|
 d>G c3 c c>=B | c4 z4 | z ^F2 F/F/ G3 F | A2 (d3 =B) B>c | ^G3 G z2 =e2- | e=BB=e c2- c/B/ c/^G/ | %31
w: words, and in the same Thy|name!|Look on my sor- rows|round! Mark _ well my|fur- nace! O|_ what flames, What heats _ _ a- *|
 A2 z d (dG) z c | =E2 z B B/A/A _A2- | A2 (G/=E)F/ F3 E | F4 z4 | z2 =E2 EE E>A | %36
w: bound! What griefs, _ what|shames! Con- si- der, Lord, Lord,|_ bow _ thine ear And|hear!|Lord Je- su, thou didst|
 (G/F/ =E2) F F _E2 E | ED =E>(^F G2) z B | B<=E E>c ^F3 G | ^F4 z2 (d=B) | =B4 z2 (ec) | %41
w: bow _ _ Thy dy- ing head|up- on the tree; _ O|be not now More dead to|me! Lord, _|hear! Lord, _|
 c2 z f BB e>G | F2 z (G/_A/) G4 | z G c3 c =E>E | (=E/F/)G z G G/A/G/A/ B2- | B=B B>B c4 | %46
w: hear! shall he that made the|ear Not _ hear?|Be- hold thy dust doth|stir, _ _ It moves, _ _ _ _|_ it creeps to thee;|
 d/^FF/ G>A B>B B2- | BB G>A (A/D)E/ E<D | G2 z ^F (G A3) | z2 z f c2 z f | f/Bc/ c>B (c d3) | %51
w: Do not de- fer To suc- cour me,|_ Thy pile of dust _ where- in each|crumb Says "Come". _|My love, my|sweet- * * * ness, hear! _|
 z d B>B F/F/F/F/ F2- | FG E>D E2 B=E/E/ | =E>E c3 c (c<^F) | G3 A B3 B | %55
w: By these thy feet, at which my heart|_ Lies all the year, Pluck out thy|dart, And heal my trou- *|* bled breast, which|
 =B2 z c ^F2 !courtesy!=f2- | ff (f<=B) c3 d | e3 =e (f^f) g2 | z (A2 B) !fermata!G4 |] %59
w: cries, Which dies, heal|_ my trou _ _ bled|breast, which cries, _ _|Which _ dies.|
V:2
 z2 z ^F, G,A, B,A,/B,/ | CD E>F G4 | [A,C]4 [D,D]4- | D>C B,>A, G,2 G2 | F3/2=E/4D/4 C>B, A,4 | %5
 z D/E/ F>D G2- G>F | F2 EG [Gc-]4 | [CAc]>B [FA]3/2B/4c/4 [^FAd-]4 | de/d/ c/B/A/B/ G4 | ^F6 A2 | %10
 [D!courtesy!=FB]4 [FBd-]4 | d3 e [df]4 | [ce]2 G2 F4 | [CF]4 [B,D]4 | F3 G/A/ B4 | %15
 ^c2 d2 =e>f g<e | fa/g/ f=e d2 B2 | A8 | F4 z3/2 A/ d>c | [G=B-]4 B c3 | z =B- B/c/d/B/ f3 d | %21
 e3 A/=B/ c2 G2 | A3 B/A/ G2 c2 | [DF]2 [F,B,D]4- [F,B,D][B,DF] | G3 F EDCF- | FDGE D2 [DG]2 | %26
 [CE]4 z B A>G | ^F4 [=EG]4 | A6 =B>c | [=E^G]2 [EG=e]2- [EGe]/d/4c/4=B/c/ [EG]>[FA] | %30
 [^G=B]4 [=EGc-]4 | c2 d3 e [cf]2 | [Gc=e]2 =E2 E3 F/_E/ | _D3 C- C3 B, | z4 z3 =B, | ^C8- | %36
 C2 A,>=B, =C4 | B,2- B,>C D=E/^F/ G/A/B- | B2 A>G ^F3 G | [A,D^F]4 [D-Fd-]4 | [D=Bd]4 [Ge]4 | %41
 [_Ac-]2 [Fc]2 [FB]2 B2- | B6 G2 | [=EGc]4 [CEG]4- | [CEG]>A G/F/=E/D/ [CE]4 | %45
 D2- [=B,D]2 C2- C/B/A/G/ | ^F2 G>F D2- D/F/G/A/ | [GB]4 A4 | G4 ^F3 G | A4- A/G/A/F/ B/c/d- | %50
 d2 c2- cB- BA/G/ | [DF]6- [DF]E/D/- | d2 G2- G>A B2 | A3 G F2 ^F2 | G3 ^F D4 | z/ de/ c6 | %56
 [D=B]4 c3 d | e3 [c=e] [cf] c2 B/G/ | G2 ^F2 z4 |] %59
V:3
 G,,4- [G,,G,]4- | [G,,-G,]8 | G,,2 ^F,,2 B,,4- | B,,>A,, G,,>F,, =E,,4 | F,,4 F,4- | %5
 F,2 B,,2 E,2- E,>D, | C,3 C B,4 | A,2 D2 C4 | B,A,G,F, E,4 | D,4- D,3 C, | [B,,-F,]8 | %11
 [B,,B,]4 [=B,,G,-]4 | G,4 C,2 F,2 | F,4 F,4 | B,3 A, G,4 | A,2 D,4 [^C,=E,A,]2 | A,2 D2 D,2 G,2- | %17
 G,2 F,4 =E,2 | D,2- D,/=E,/F,/G,/ A,4 | [G,=B,]4 _A,4 | [G,D]8 | [G,=B,]3 F, [=E,G,]4 | %22
 F,3 B,, E,2 A,,2 | B,,8 | E,3 D, C,B,, _A,,2 | G,,G,/F,/ E,C, G,,4 | C,8 | D,8- | D,8 | z2 =B,6- | %30
 B,4 [^G,C-]4 | [F,C]2 [B,,B,]2 [E,B,]2 [A,,F,]2 | [C,C]8 | F,_D,G,_A, G,4 | [F,,F,]8 | %35
 [A,,=E,]8- | E,2 A,2 F,4 | [B,,G,]2- [B,,G,]>[A,,A,] [G,,D,]4 | C,8 | D,8 | G,3 F, E,4 | %41
 _A,6 G,2 | B,2 B,,2 E,3 D, | [C,G,]8- | G,8 | F,4 =E,4 | A,2 G,A, D,4 | G,4 D,4 | E,4 A,,4 | %49
 z z/ C,/ F,2- F,4- | F,4 F,4 | B,8 | G,8 | A,4 A,4 | G,2 A,2 D,2 G,2 | =B,2 G,2 A,4 | %56
 G,3 F, z G,A,=B,- | B,C G,2 A,C, D,>G, | [D,A,]2 D,,2 G,,4 |] %59
V:4
 x8 | C6 B,2 | x8 | D,4 G,2 B,2 | x8 | z4 z3/2 G,/ A,>=B, | [G,C]3 E =E4 | x8 | [DG]4 D2 C2 | %9
 D3 C/B,/ A,4 | x8 | [GB] _A3 G4- | A2 [CE]4 D2 | B,3 A, B,4 | D6 G2- | G2 [FA]2 [=EA]2 A2 | %16
 A4 D2 =E>D | ^C2 D4- DC | A,4 z2 F2 | D2 E4 F2 | z G- G2- [G=B]4- | [GB]3 z C4- | C2 D4 C2 | x8 | %24
 [G,B,]4 C2 F,C | =B,2 C4 C>B, | G,4 z2 C2- | C4 B,4 | [D^F]3 =E =F4 | x8 | x8 | A4 G2 F2 | x8 | %33
 x8 | !courtesy!=A,8- | A,8- | A,2 A,>=B, C4 | B,2- B,>C B,4- | [B,=E]2 [CE]2 [C_E]3 [B,E] | x8 | %40
 x8 | E>D C2 D2 B,E- | E2 D2 E4 | x8 | x8 | x8 | D2 DC B,2- B,/^F/G/A/ | D4 D2 A,2 | D2 C2 A,2 D2 | %49
 A/=E/ F2- [CF]2- [CF] [DF-]2 | F4 [DF]4 | x8 | D2 E>D E2 [C=E]2- | [CE]4 D4 | D2 C2 B,4 | %55
 z/ de/ c2- cBAG | F3 G- [CG]2 F2 | E>F G2 FA [DG]2 | D4 z/ C/D/A,/ [B,D]2 |] %59
V:5
 x8 | x8 | x8 | x8 | x8 | x8 | x8 | x8 | x8 | x8 | x8 | x8 | C,2- C,>B,, A,,2 B,,2 | F,,4 B,,4 | %14
 x8 | x8 | D,3 !courtesy!=C, B,,2 G,,2 | A,,8 | D,8 | x8 | x8 | x8 | x8 | x8 | x8 | x8 | x8 | x8 | %28
 x8 | =E,8- | E,8 | x8 | x8 | B,,3 _A,, C,4 | x8 | x8 | A,,8 | x8 | x8 | x8 | x8 | x8 | x8 | x8 | %44
 C,8- | C,8- | C,2 B,,A,, G,,4- | G,,6 F,,2 | E,,4 D,,3 =E,, | !courtesy!=F,,4 F,,4- | F,,4 B,,4- | %51
 B,,8 | =B,,4 C,4- | C,2 A,,2 D,3 C, | B,,2 A,,2 G,,2 G,2 | F,2 E,2 D,4 | G,3 F, E,2 D,2 | %57
 C,3 !courtesy!_B,, A,,2 G,,2 | x8 |] %59

